X:1
T:Lieder eines fahrenden Gesellen
T:Wenn mein Schatz Hochzeit macht
T:1. Wenn mein Schatz Hochzeit macht
T:Gustav Mahler
T:Gustav Mahler
T:Lieder eines fahrenden Gesellen
T:OpenScore (CC0) 
T:OpenScore (CC0) 
T:OpenScore (CC0) 
T:OpenScore (CC0) 
T:OpenScore (CC0) 
T:OpenScore (CC0) 
C:Gustav Mahler
Z:Gustav Mahler
Z:OpenScore (CC0)
%%score ( 1 2 ) { ( 3 5 ) | ( 4 6 7 ) }
L:1/8
Q:1/4=120
M:4/8
K:F
V:1 treble nm="Voice"
V:2 treble 
V:3 treble nm="Piano"
V:5 treble 
V:4 bass 
V:6 bass 
V:7 bass 
V:1
"^Allegro" z4 |[M:3/8] z3 |[M:4/8] z4 |[M:3/8] z3 |[M:2/4]!p![Q:1/4=60]"^Langsam" (AG) (FG) | A4 | %6
w: ||||Wenn * mein *|Schatz|
 A2 d2 |[Q:1/4=120]"_Allegro" A4 |[M:3/8] z3 |[M:2/4][Q:1/4=85]"^Andante" (BA) G A | B2 d2 | %11
w: Hoch- zeit|macht,||fröh- * li- che|Hoch- zeit|
[Q:1/4=120]"_Allegro" B4 |[M:3/8] z3 |[M:4/8][Q:1/4=85]"^Andante" A2 f2 | e2 d2 | (ed) c B | %16
w: macht,||hab' ich|mei- nen|trau- * ri- gen|
[Q:1/4=120]"^Allegro" A4 | z4 | z4 | z4 | z4 |!p![Q:1/4=85]"^Andante" B2 A2 | A2 G2 | B2 A2 | %24
w: Tag!|||||Geh' ich|in mein|Käm- mer-|
 (A2 G2) | (F_E) (DE) | F2 G2 |[Q:1/4=120]"^Allegro" F4 | z4 | %29
w: lein, *|dunk- * les *|Käm- mer-|lein,||
"^espress."[Q:1/4=85]"^Andante" (_ED) E2 | (!tenuto!D2 !tenuto!C2) | %31
w: wei- * ne|wein' *|
 (!tenuto!D!tenuto!C) !tenuto!=B, !tenuto!C | D4 | (_E2 c2) | B2 _A2 | %35
w: um * mei- nen|Schatz,|um *|mei- nen|
[Q:1/4=78]"^rit."!<(! (G2!mf! B2-)!<)! |[Q:1/4=70]!>(! B2 ^F2!>)! | %37
w: lie- *|* ben|
[Q:1/4=120]"^Allegro"!mp! G2 z2 |[M:3/8] z3 | z3 |[M:4/8] z4 | z4 | !fermata!z4 || %43
w: Schatz!||||||
[K:Eb][M:6/8][Q:1/4=95]"^Moderato" z6 | z6 |!pp! B2 c B3 | B2 c B2 B | c2 d e2 e | (fg) f e3 | %49
w: ||Blüm- lein blau!|Blüm- lein blau! Ver-|dor- re nicht! Ver-|dor- * re nicht!|
 z2 z!pp! B2 c | B3 B2 c |[M:3/8] B3 |[M:6/8] z2 z z2!mp! D |!<(! G2 =A (Bc) d!<)! |!mf! e3 d3 | %55
w: Vög- lein|süss! Vög- lein|süss!|Du|singst auf grü- * ner|Hai- de|
 z6 ||[K:F]!f!!>(! c2 B!>)!!p!!<(! (A^G) A!<)! |!f!!>(! !^!d2 A B2!>)! z/!p! d/ | %58
w: |Ach! wie ist * die|Welt so schön! Zi-|
 c3-[Q:1/4=100]"^veloce" c2 z/ g/ | c3- c z z/ g/ | %60
w: küth! * Zi-|küth! * Zi-|
[Q:1/4=105] c3-[Q:1/4=115] c z z[Q:1/4=110][Q:1/4=120] |[Q:1/4=125] z6[Q:1/4=120][Q:1/4=110] | %62
w: küth! *||
[Q:1/4=95] !fermata!z6[Q:1/4=90][Q:1/4=85][Q:1/4=80][Q:1/4=75] || %63
w: |
[M:2/4]!p![Q:1/4=60]"^Wie im Anfang" (AG) (FG) | A4 | A2 d2 | A4 | (BA) (GA) | B2 d2 | B4 | A2 f2 | %71
w: Sin- * get *|nicht!|Blü- het|nicht!|Lenz * ist *|ja vor-|bei!|Al- les|
 e2 d2 | c2 B2 |[Q:1/4=120]"^Allegro" A4 | z4 | z2 !fermata!z A |!pp![Q:1/4=85]"^Andante" B2 A2 | %77
w: Sin- gen|ist nun|aus!||Des|A- bends,|
 A2 G2 | (F_E) (DE) | F4 |"^espress." (_E!<(!D) E2 | D2 C2!<)! |!mf!!>(! (!^!D!^!C!^!=B,!^!C) | %83
w: wenn ich|schla- * fen *|geh',|denk' * ich|an mein|Lei- * * *|
!p! D2!>)! z2 |!<(! (_E2 c2)!<)! |!mf!!>(! (B2 _A2)!>)! | %86
w: de!|An *|mein *|
!p!!<(! (G2[Q:1/4=80]"^rit."!mf!!>(! !^!B2-)!<)! |[M:3/4][Q:1/4=75] B2[Q:1/4=70]!p! ^F2!>)! z2 | %88
w: Lei- *|* de!|
[M:4/8][Q:1/4=120]"^Allegro" z4 |[M:3/8] z3 |[M:4/8] z4 |[M:4/8] z4 |[M:3/8][Q:1/4=110] z3 | %93
w: |||||
[Q:1/4=97] z3 |[Q:1/4=85] z3 |[Q:1/4=75] z3 |[Q:1/4=60] z3 |] %97
w: ||||
V:2
 x4 |[M:3/8] x3 |[M:4/8] x4 |[M:3/8] x3 |[M:2/4] x4 | x4 | x4 | x4 |[M:3/8] x3 |[M:2/4] x4 | x4 | %11
 x4 |[M:3/8] x3 |[M:4/8] x4 | x4 | x4 | x4 | x4 | x4 | x4 | x4 | x4 | x4 | x4 | x4 | x4 | x4 | x4 | %28
 x4 | x4 | x4 | x4 | x4 | x4 | x4 | x4 | x4 | x4 |[M:3/8] x3 | x3 |[M:4/8] x4 | x4 | x4 || %43
[K:Eb][M:6/8] x6 | x6 | x6 | x6 | x6 | c2 x4 | x6 | x6 |[M:3/8] x3 |[M:6/8] x6 | x6 | x6 | x6 || %56
[K:F] x6 | x6 | x6 | x6 | x6 | x6 | x6 ||[M:2/4] x4 | x4 | x4 | x4 | x4 | x4 | x4 | x4 | x4 | x4 | %73
 x4 | x4 | x4 | x4 | x4 | x4 | x4 | x4 | x4 | x4 | x4 | x4 | x4 | x4 |[M:3/4] x6 |[M:4/8] x4 | %89
[M:3/8] x3 |[M:4/8] x4 |[M:4/8] x4 |[M:3/8] x3 | x3 | x3 | x3 | x3 |] %97
V:3
!p!"^Auf den fortwährenden Tempowechsel ist genau zu achten" ([FA]/[EG]/[DF]/[EG]/ .[FA]) z | %1
[M:3/8] .[Fd] !tenuto![FA]2 |[M:4/8] ([FA]/[EG]/[DF]/[EG]/ .[FA]) z | %3
[M:3/8] .[Fd] !breath!!tenuto![FA]2 |[M:2/4] ([FA][EG][DF][EG] | [FA]4) | [A,FA]4 | %7
!mf! ([FA]/[EG]/[DF]/[EG]/ .[FA]) z |[M:3/8] .[Fd] !breath!!tenuto![FA]2 | %9
[M:2/4]!pp! ([GB][FA][B,EG][FA] | [GB]2 [FBd]2) |!mf! ([GB]/[DA]/[B,G]/[DA]/ .[GB]) z | %12
[M:3/8] .[Bd] !tenuto![GB]2 |[M:4/8]!p! (A2 f2 | [Gce]2 [FBd]2 | [EAc]2 [DGB]2) | %16
!mf! ([FA]/[EG]/[DF]/[EG]/ .[FA])!>(!.[Fd] | [FA]2 [Fd][FA]- | %18
 ([FA]/[EG]/[DF]/[EG]/!>)!"_rit." [FA]2-) |!>(! [FA]4- | [FA]4!>)! | (B2 A2 | A2 G2) | (B2 A2 | %24
 A2 G2) | ([DF][=C_E][B,D][CE] | [DF]2 [^CG]2) | ([df]/[=c_e]/[Bd]/[ce]/"_l. H." [^cf]) z | %28
{/f} [dfb] [Bdf]3 | [G,=D_E]4 | [G,_E]4 | D4 | D4 | [G,C_E]4 | ((([D_E-B]2 [CE_A]2))) | (G2 D2-) | %36
 [CD]3 (!^![c_e] |!f! [Bd]/[Ac]/[GB]/[Ac]/!>(! [Bd]) z |[M:3/8]{d-} .[Bdg] [Bd]2!>)! | %39
{D-} .[B,DG] [B,D]2- |[M:4/8]!>(! [B,D]/[A,C]/[G,B,]/[A,C]/"^rit." [B,D]2-!>)! | [B,D]4- | %42
 !fermata![B,D]4 ||[K:Eb][M:6/8]!pp! !^!b6 | !^!b6 | !^!b6 | !^!b6 | !^!b6 | !^!b3 !^!e'3 | %49
 ba/!pp!g/f/e/{fbc'} !trill(!Tb3 |{/=a} b_a/g/f/e/{fbc'} Tb3 |[M:3/8] [eb]3 | %52
[M:6/8] fe/d/c/B/ (.b.b.b) | %53
!<(! !trill(!Tg3({^fg} .d'/!<)!!mf!!>(!.c'/.b/.=a/.g/!trill)!.=f/)!>)! | %54
!p!!<(! ([eg]/[df]/[ce]/[df]/!<)!!tenuto![eg])!mf!{/g} .[dgb]!>(! [Bdg]2!>)! | %55
!mp!!<(! ([gb]/[f=a]/[eg]/[fa]/!<)!!tenuto![gb])!f!{/b} .[f=ad']!>(! [dfb]2!>)! || %56
[K:F]!mf! (!^![cea]!>(![Bdg][GBc])!>)!!p!!<(! c(.d/.e/.f/.g/)!<)! | %57
!mf!!>(! !trill(!Ta3!p!!<(!{^ga} (.b/!>)!.c'/!<)!!f!!>(!d'!trill)!=g)!>)! | %58
!p!!<(! !trill(!!^!Tb3{=ab} (.f'/!<)!"_veloce"!mf!!>(!.=e'/.f'/.d'/.e'/!trill)!.c'/)!>)! | %59
!p!!<(! !trill(!!^!Tb3!mf!{=ab} (.f'/!<)!!>(!.=e'/.f'/.d'/.e'/!>)!!mp!!trill)!.c'/) | %60
"_accel."!>(! (.[fbd']/.c'/.d'/.b/.[=ec']/.a/!>)!!p!!<(! .[dfb]/.g/.[ebd']/!<)!!mf!.c'/!>(!.d'/.b/) | %61
 (.[c=ec']/.a/.[dfb]/!>)!!mp!.g/.[B-f]/.d/)"_poco rit." (.[Be]/!>(!.d/.e/.c/.d/!>)!!p!.B/-) | %62
"_molto riten." (.[Bf]/.=e/.f/.d/.[Ae]/.c/)!>(! (d/B/!>)!e/c/d/!breath!!fermata!B/) || %63
[M:2/4]!pp! ([FA][EG][DF][EG]) | [A,FA]4 | ([FA]2 [Ed]2 | [FA]4) | ([GB][DA][B,G][DA]) | %68
 ([GB]2 [Fd]2 | [GB]4) |!<(! (A2 f2!<)! |!mf!!>(! [Ge]2 [Fd]2) | ([Ac]2!>)!!p! [GB]2) | %73
!mf! ([FA]/[EG]/[DF]/[EG]/ .[FA]).[Ed] |!>(! ([FA]2- [FA]/[EG]/[DF]/[EG]/!>)! | %75
!p! !fermata![FA]4) | (B2 A2) | (A2 G2) | ([DF][=C_E][B,D][CE] | [FA]4) |!<(! [G,=D_E]4 | %81
 (=D2!<)! C2) |!mf! D4 | D4 | [C_E]4 | ([_DB]2 [C_A]2) | G2"_rit." !^!D2- | %87
[M:3/4]!<(! [CD]4!mp! ((!^![c_e]2!<)! |[M:4/8]!ppp! ([Bd]/))[Ac]/[GB]/[Ac]/.[Bd]) z | %89
[M:3/8]{/d} .[Bdg] !tenuto![Bd]2 |[M:4/8] ([Bd]/[Ac]/[GB]/[Ac]/.[Bd]) z | %91
[M:3/8]{/d} .[Bdg] [Bd]2- x |[M:3/8]"_rit." ([Bd]2 [A_e] | [Bd]3 | [A_e] [Bd]2-) | [Bd]3- | %96
 !fermata![Bd]3 |] %97
V:4
 z2 z .[D,,D,] |[M:3/8] z2 .[D,D] |[M:4/8] z2 z .[D,,D,] |[M:3/8] z2 .[D,D] | %4
[M:2/4]!pp!{/B,,} [D,,A,,]4 |{/B,,} [D,,A,,]4 |{/B,,} [D,,A,,]4 |{/B,,} [D,,A,,]2 z .[D,,D,] | %8
[M:3/8] z2 .[D,D] |[M:2/4]{/B,,} [D,,A,,]4 |{/B,,} [D,,A,,]4 |{/B,,} [D,,A,,]2 z .[D,,D,] | %12
[M:3/8] z2 .[D,D] |[M:4/8] (A,,2 D,2 | E,2 F,2 | ^F,2 G,2) |{/^G,} [D,A,]4 | z .A,,, D,,2- | %18
 D,,3 .A,,, | .D,,.A,,,.D,,.A,,, | D,,4 |!pp! ([B,,-F,]4 | [B,,=E,]4) | ([B,,-F,]4 | [B,,=E,]4) | %25
 [B,,F,]4- | [B,,F,]4 | D2 x2 | x4 | B,,4 | A,,4 | F,2 ^F,2 | =F,4 | [C,,G,,]4- | [C,,G,,]4 | %35
 [D,,D,]4- | [D,,D,]4 | (D,/_E,/D,/E,/ D,/E,/D,/E,/ |[M:3/8] D,/_E,/D,/E,/D,/E,/ | %39
 D,/_E,/D,/E,/D,/E,/) |[M:4/8] D,_E, D,2- | D,4- | !fermata!D,4 || %43
[K:Eb][M:6/8][K:treble][K:treble] [EB]6 | [EB]6 | (G2 A FGA) | (B2 c ABG) | (AFB G/A/BG) | %48
 (AB_d cBA) | x6 | x6 |[M:3/8] G2 x |[M:6/8][K:bass] !arpeggio![B,,F,D]6 | !arpeggio![B,,G,D]6 | %54
 ((!arpeggio![G,-CE]3 [G,B,D]3)) | [G,CE]3 D3 ||[K:F] (C,D,E, F,3) | !arpeggio![C,D]6 | (=E3 F3) | %59
 (=E3 F3) |[K:treble] (G2 A B G2) | (ABF ^F G2) |!ppp! (.D.E.^F .G.D.!fermata!E) || %63
[M:2/4][K:bass]{/B,,} [D,,A,,]4 |{/B,,} [D,,A,,]4 |{/B,,} [D,,A,,]4 |{/B,,} [D,,A,,]4 | %67
{/B,,} [D,,A,,]4 |{/B,,} [D,,A,,]4 |{/B,,} [D,,A,,]4 | (3(A,,2 B,,2 =B,,2 | (3C,2 ^C,2 D,2) | %72
 (3(E,2 ^F,2 G,2) |{/B,} [D,A,]4- | .[D,A,] .A,,,.D,,.A,,, | .D,,.A,,, .!fermata!D,,2 | %76
!pp! [B,,F,]4 | [B,,=E,]4 | [B,,F,]4- | [B,,F,]4 | [B,,,B,,]4 | [A,,,A,,]4 | F,2 ^F, x | %83
 !arpeggio!=F,4 | G,4 | x4 | [D,,D,]4- |[M:3/4] [D,,D,]6 |[M:4/8] (D,/_E,/D,/E,/ D,/E,/D,/E,/ | %89
[M:3/8] D,/_E,/D,/E,/D,/E,/ |[M:4/8] D,/_E,/D,/E,/ D,/E,/D,/E,/ |[M:3/8] D,_E,D,E, | %92
[M:3/8] D,_E,D,-) | [G,,D,] .D,,,.G,,, | .D,,,.G,,,.D,,, | .G,,,.D,,,.G,,, | !fermata!z3 |] %97
V:5
 x4 |[M:3/8] x3 |[M:4/8] x4 |[M:3/8] x3 |[M:2/4] A,4 | A,4 | x4 | x4 |[M:3/8] x3 |[M:2/4] x4 | x4 | %11
 x4 |[M:3/8] x3 |[M:4/8] [FA]4 | x4 | x4 | x4 | x4 | x4 | x4 | x4 | (D4 | ^C4 | D4 | ^C4) | x4 | %26
 x4 | x2 .G.A | .B x x2 | x4 | (=D2 C2) | C2 !^!=B,!^!C | (C2 =B,2) | x4 | x4 | B,4 | x4 | x4 | %38
[M:3/8] x3 | x3 |[M:4/8] x4 | x4 | x4 ||[K:Eb][M:6/8] (e2 f def) | (e2 f def) | %45
 ([Be]2 [cf] [Ad][Be][cf]) | ([dg]2 [ea] [cf][dg][Be]) | ([cf]cd [Ad]/f/ge) | %48
 ([cf][dg][fb] [ea][eg][ef]) | e3{f-} f[I:staff +1]e/=d/c/!trill)!B/ | %50
[I:staff -1] e3{f-} f[I:staff +1]e/d/c/B/- |[M:3/8] x3 |[M:6/8][I:staff -1] [FB]6 | [Gd]6 | x6 | %55
 e3 x x2 ||[K:F] x3 [FA]3 | d6 | x6 | x6 | x6 | x6 | x6 ||[M:2/4] A,4 | x4 | x4 | x4 | x4 | x4 | %69
 x4 | F4 | A4 | (3(E2 _E2 D2) | x4 | x4 | x4 | (D4 | ^C4) | x4 | x4 | x4 | !arpeggio![G,_E]4 | %82
 (C2!>(! !^!=B,!^!C) | (C2!>)!!p! =B,2) | x4 | E4 | B,4 |[M:3/4] x6 |[M:4/8] x4 |[M:3/8] x3 | %90
[M:4/8] x4 |[M:3/8] x4 |[M:3/8] x3 | x3 | x3 | x3 | x3 |] %97
V:6
 x4 |[M:3/8] x3 |[M:4/8] x4 |[M:3/8] x3 |[M:2/4] x4 | x4 | x4 | x4 |[M:3/8] x3 |[M:2/4] x4 | x4 | %11
 x4 |[M:3/8] x3 |[M:4/8] [D,,-A,,]4 | D,,4 | x4 | x4 | x4 | x4 | x4 | x4 | x4 | x4 | x4 | x4 | x4 | %26
 x4 | !arpeggio![B,,F,]4- | [B,,F,]4 | B,,,4 | A,,,4 | [_A,,,_A,,]4 | [G,,,G,,]4 | x4 | x4 | x4 | %36
 x4 | G,,4 |[M:3/8] G,,3- | G,,3 |[M:4/8] G,,3 .D,, | .G,,.D,,.G,,.D,, | G,,4 || %43
[K:Eb][M:6/8][K:treble][K:treble] (G2 A FGA) | (G2 A FGA) | E6 | E6 | E6 | E6 | ([E-GB-]3 [EAB]3) | %50
 ([E-GB-]3 [EAB]3) |[M:3/8] (E/C/B,/G,/E,/G,/) |[M:6/8][K:bass] x6 | x6 | B,,6 | !arpeggio!B,,6 || %56
[K:F] C,6 | (([^F,A,]3 [G,B,]3)) | !arpeggio![C,G,B,]6 | [C,G,B,]6 |[K:treble] C6- | C6 | %62
 !fermata!C6 ||[M:2/4][K:bass] x4 | x4 | x4 | x4 | x4 | x4 | x4 | D,,4- | D,,4- | D,,4 | x4 | x4 | %75
 x4 | x4 | x4 | x4 | x4 | x4 | x4 | [_A,,,_A,,]4 | !arpeggio![G,,,G,,]4 | [C,,G,,]4- | [C,,G,,]4 | %86
 x4 |[M:3/4] x6 |[M:4/8] G,,4- |[M:3/8] G,,3 |[M:4/8] G,,4- |[M:3/8] G,,4 |[M:3/8] G,,3- | x3 | %94
 x3 | x3 | x3 |] %97
V:7
 x4 |[M:3/8] x3 |[M:4/8] x4 |[M:3/8] x3 |[M:2/4] x4 | x4 | x4 | x4 |[M:3/8] x3 |[M:2/4] x4 | x4 | %11
 x4 |[M:3/8] x3 |[M:4/8] x4 | x4 | x4 | x4 | x4 | x4 | x4 | x4 | x4 | x4 | x4 | x4 | x4 | x4 | x4 | %28
 x4 | x4 | x4 | x4 | x4 | x4 | x4 | x4 | x4 | x4 |[M:3/8] x3 | x3 |[M:4/8] x4 | x4 | x4 || %43
[K:Eb][M:6/8][K:treble][K:treble] x6 | x6 | x6 | x6 | x6 | x6 | x6 | x6 |[M:3/8] B3 | %52
[M:6/8][K:bass] x6 | x6 | x6 | x3 [F,=A,]2 [G,B,] ||[K:F] x6 | x6 | x6 | x6 |[K:treble] x6 | x6 | %62
 x6 ||[M:2/4][K:bass] x4 | x4 | x4 | x4 | x4 | x4 | x4 | x4 | x4 | x4 | x4 | x4 | x4 | x4 | x4 | %78
 x4 | x4 | x4 | x4 | x4 | x4 | x4 | x4 | x4 |[M:3/4] x6 |[M:4/8] x4 |[M:3/8] x3 |[M:4/8] x4 | %91
[M:3/8] x4 |[M:3/8] x3 | x3 | x3 | x3 | x3 |] %97

